X:1
T:the Marquis of Huntly's Strathspey
C:William Marshall
L:1/8
M:4/4
I:linebreak $
K:F
V:1 treble 
V:1
 F |"Gm" D<G{A} G>F D<G G>A |"F" F>G A>B c/B/A/G/ F<A |"Gm" D<G{A} G>F D<G G>g |$ %4
"F" f>c"^(D7)" d/c/B/A/"Gm" B<G G :| d |"Gm" g>a b>g d<g b>g |"F" a/g/f/d/ c>d{e} f<c a>f | %8
"Gm" g>a b>g d<g b>g |$ b/a/g/f/"D7" d>^f"Gm" g3 |] d |"Gm" g>a b>g"^(D)" a<^f"Gm" g>e | %12
"F" f>d c<f A<F c>F |"Gm" D<G{A} G>F D<G G>g |$"F" f>c"^(D7)" d/c/B/A/"Gm" B<G G |] %15
